blockchains/ethereum/assets/0x3432B6A60D23Ca0dFCa7761B7ab56459D9C964D0/logo.svg

<svg fill="none" height="250" viewBox="0 0 250 250" width="250" xmlns="http://www.w3.org/2000/svg" xmlns:xlink="http://www.w3.org/1999/xlink"><clipPath id="a"><path d="m0 0h250v250h-250z"/></clipPath><g clip-path="url(#a)"><path d="m125 250c-16.872 0-33.241-3.307-48.6577-9.825-14.8874-6.297-28.2491-15.311-39.7322-26.785-11.4743-11.474-20.4879-24.845-26.78508-39.732-6.51767-15.417-9.82502-31.786-9.82502-48.658s3.30735-33.241 9.82502-48.6577c6.29718-14.8874 15.31078-28.2491 26.78508-39.7322 11.4831-11.4743 24.8448-20.4879 39.7322-26.78508 15.4167-6.51767 31.7857-9.82502 48.6577-9.82502s33.241 3.30735 48.658 9.82502c14.887 6.29718 28.249 15.31078 39.732 26.78508 11.474 11.4743 20.488 24.8448 26.785 39.7322 6.518 15.4167 9.825 31.7857 9.825 48.6577s-3.307 33.241-9.825 48.658c-6.297 14.887-15.311 28.249-26.785 39.732-11.474 11.474-24.845 20.488-39.732 26.785-15.417 6.526-31.786 9.825-48.658 9.825z" fill="#fff"/><path d="m125 243.378c65.378 0 118.377-52.999 118.377-118.377 0-65.377-52.999-118.376-118.377-118.376-65.3775 0-118.37646 52.999-118.37646 118.376 0 65.378 52.99896 118.377 118.37646 118.377z" fill="#000"/><path d="m173.076 153.729c0-10.946-4.551-19.933-13.521-26.733-6.632-5.027-15.902-9.146-30.939-13.767-27.067-8.317-27.067-13.106-27.067-16.9601 0-5.327 7.884-12.709 22.675-12.709 8.758 0 23.451 2.2049 23.451 16.9861h24.624c0-6.967-1.561-13.4671-4.515-19.1381l19.756-19.7558-17.41-17.4099-20.135 20.1439c-7.303-3.5807-16.043-5.4417-25.762-5.4417-9.058 0-17.384 1.7463-24.5629 5.1066l-19.8-19.8-17.4099 17.4099 18.7858 18.7857c-2.8047 4.9037-4.3128 10.3189-4.3128 15.8312 0 10.9452 4.5509 19.9322 13.5204 26.7322 6.6323 5.027 15.8754 9.137 30.9124 13.758 27.068 8.309 27.085 13.115 27.085 16.969 0 5.327-7.884 12.709-22.675 12.709-8.758 0-23.451-2.205-23.451-16.986h-24.6245c0 6.994 1.5699 13.511 4.5421 19.2l-19.7912 19.791 17.4099 17.41 20.2057-20.206c7.294 3.564 16.008 5.416 25.7 5.416 9.032 0 17.331-1.738 24.492-5.072l19.871 19.871 17.41-17.41-18.821-18.821c2.831-4.939 4.357-10.363 4.357-15.91z" fill="#fff"/></g></svg>

<svg width="250" height="250" viewBox="0 0 250 250" fill="none" xmlns="http://www.w3.org/2000/svg">
<g clip-path="url(#clip0_48_13097)">
<path d="M125 250C108.128 250 91.759 246.693 76.3423 240.175C61.4549 233.878 48.0932 224.864 36.6101 213.39C25.1358 201.916 16.1222 188.545 9.82502 173.658C3.30735 158.241 0 141.872 0 125C0 108.128 3.30735 91.759 9.82502 76.3423C16.1222 61.4549 25.1358 48.0932 36.6101 36.6101C48.0932 25.1358 61.4549 16.1222 76.3423 9.82502C91.759 3.30735 108.128 0 125 0C141.872 0 158.241 3.30735 173.658 9.82502C188.545 16.1222 201.907 25.1358 213.39 36.6101C224.864 48.0844 233.878 61.4549 240.175 76.3423C246.693 91.759 250 108.128 250 125C250 141.872 246.693 158.241 240.175 173.658C233.878 188.545 224.864 201.907 213.39 213.39C201.916 224.864 188.545 233.878 173.658 240.175C158.241 246.701 141.872 250 125 250Z" fill="white"/>
<path d="M125 243.378C190.378 243.378 243.377 190.379 243.377 125.001C243.377 59.624 190.378 6.625 125 6.625C59.6225 6.625 6.62354 59.624 6.62354 125.001C6.62354 190.379 59.6225 243.378 125 243.378Z" fill="black"/>
<path d="M173.076 153.729C173.076 142.783 168.525 133.796 159.555 126.996C152.923 121.969 143.653 117.85 128.616 113.229C101.549 104.912 101.549 100.123 101.549 96.2689C101.549 90.9419 109.433 83.5599 124.224 83.5599C132.982 83.5599 147.675 85.7648 147.675 100.546H172.299C172.299 93.579 170.738 87.0789 167.784 81.4079L187.54 61.6521L170.13 44.2422L149.995 64.3861C142.692 60.8054 133.952 58.9444 124.233 58.9444C115.175 58.9444 106.849 60.6907 99.6701 64.051L79.8701 44.251L62.4602 61.6609L81.246 80.4466C78.4413 85.3503 76.9332 90.7655 76.9332 96.2778C76.9332 107.223 81.4841 116.21 90.4536 123.01C97.0859 128.037 106.329 132.147 121.366 136.768C148.434 145.077 148.451 149.883 148.451 153.737C148.451 159.064 140.567 166.446 125.776 166.446C117.018 166.446 102.325 164.241 102.325 149.46H77.7005C77.7005 156.454 79.2704 162.971 82.2426 168.66L62.4514 188.451L79.8613 205.861L100.067 185.655C107.361 189.219 116.075 191.071 125.767 191.071C134.799 191.071 143.098 189.333 150.259 185.999L170.13 205.87L187.54 188.46L168.719 169.639C171.55 164.7 173.076 159.276 173.076 153.729Z" fill="white"/>
</g>
<defs>
<clipPath id="clip0_48_13097">
<rect width="250" height="250" fill="white"/>
</clipPath>
</defs>
</svg>
